!!!OTL: 1624. Der kleine lustige Reisende.
!!!ODT: 1852
!!!ARE: Europa, Mitteleuropa, Deutschland, Oderberg, Hohen Saathen
!!!SCT: E1624
!!!TXL: @@DE
!!!YEM: Copyright 1995, estate of Helmut Schaffrath.
**kern	**text
*ICvox	*
*M3/8	*
*met(3)	*
*k[f#]	*
*G:	*
!LO:TX:a:t=Etwas geschwind.	!
!LO:TX:a:t=Hohen Saathen bei Oderberg 1852.	!
{8b	Mein
=1	=1
8g	Va-
8b	-ter
16b	iſt
16b	ein
=2	=2
8g	Schneider,
8b}	.
{8b	er
=3	=3
8g	hat
8b	auch
8b	brav
=4	=4
8ddL	Geld,
8ccJ}	.
{8a	er
=5	=5
8f#	ſprach
8a	du
16a	jun-
16a	-ges
=6	=6
8f#	Bürſch-
8a}	-chen
{8a	mußt
=7	=7
8dd	rei-
8dd	-ſen
16dd	in
16dd	der
=8	=8
(8ddL	Welt,
8eeJ)}	.
{8cc	mit'n
=9	=9
16b	Tril-
16b	.
8b	-lern,
8b	mit'n
=10	=10
16b	Tril-
16b	.
8b	-lern,
8dd	juch
=11	=11
8gg	trill-
8dd;}	-ra!
{8cc	Mit'n
=12	=12
16a	Tril-
16a	-le-
8a	-ra,
8a	mit'n
=13	=13
16a	Tril-
16a	-le-
8a}	-ra,
{8a	mit
=14	=14
8dd	Tra-
16ee	-di-
16dd	-del-
16cc	-di-
16a	-del-
=15	=15
8g	-dum.
8r}	.
==	==
!!!AGN: Staende -, Handwerker -, Gesellen - Lied, Schneider; Wanderschaft
!!!ONB: ESAC (Essen Associative Code) Database: ERK3
!!!AMT: simple triple
!!!AIN: vox
!!!EED: Helmut Schaffrath
!!!EEV: 1.0
!!!GTL: Staendelieder (Berufslieder). 8. Handwerkerlieder.
!!!URL-scan: https://rosdok.uni-rostock.de/mcrviewer/recordIdentifier/rosdok_ppn745177999/iview2/phys_0446.iview2?x=-449.8344612962892&y=-6.640514563769102&scale=0.47549036216460333&rotation=0&layout=singlePageLayout
!!!ENC: Anna Maria Matuszewska
!!!EEV: 2025/08/01
*-	*-
